X:1
T:Title
%%score { ( 1 3 ) | ( 2 4 ) }
L:1/8
Q:1/4=100
M:4/4
K:Bb
V:1 treble nm="Grand Piano"
V:3 treble 
V:2 bass 
V:4 bass 
V:1
 [DF]2 [DF]>[EG] [DF][DF][B,D][CE] | [DF]2 [DB]>[DB] [DB]4 | A2 E>E E4 | [DG]2 [DF]>[_D=E] [=DF]4 | %4
w: Wm.~J.~Kirkpatrick * * * * * *||||
 [DF]2 [DF]>[EG] [DF][DF][B,D][CE] | [DF]2 [DB]>[DB] [DB]4 | c2 G>G G4 | A2 G>A [DB]4 | %8
w: ||||
 c<c F2 c<c F2 | [DB]<[DB] [DB]>[Ec] [Fd]4 | [Fe]2 [Fd]>[Fd] [Fc]2 [=EB]2 | c6[K:bass] z2 | %12
w: ||||
 [DF]<[DF] B2 c<c F2 | B<B B>c d4 | [Ge]2 [EGc]2 [DFB]2 [CFA]2 | [DFB]6 z2 |] %16
w: ||||
V:2
 [B,,B,]2 [B,,B,]>[B,,B,] [B,,B,][B,,B,][B,,F,][B,,F,] | [B,,B,]2 [B,,F,]>[B,,F,] [B,,F,]4 | %2
 [F,C]2 [F,A,C]>[F,A,C] [F,A,C]4 | [B,,B,]2 [B,,B,]>[B,,B,] [B,,B,]4 | %4
 [B,,B,]2 [B,,B,]>[B,,B,] [B,,B,][B,,B,][B,,F,][B,,F,] | [B,,B,]2 [B,,F,]>[B,,F,] [B,,F,]4 | %6
 [E,G,E]2 [E,CE]>[E,CE] [E,CE]4 | [F,CE]2 [F,CE]>[F,CE] [B,,B,]4 | %8
 [F,A,E]<[F,A,E] [CE]2 [F,A,E]<[F,A,E] [CE]2 | [B,,B,]<[B,,B,] [B,,F,]>[B,,F,] [B,,B,]4 | %10
 [A,,C]2 [B,,B,]>[B,,B,] [C,A,]2 [C,G,]2 | [A,F]6 z2 | [B,,B,]<[B,,B,] [F,D]2 [F,A,F]<[F,A,F] F,2 | %13
 [B,DF]<[B,DF] [B,DF]>[B,CF] [B,F]4 | [E,B,]2 E,2 F,2 F,2 | B,,6 z2 |] %16
V:3
 x8 | x8 | x8 | x8 | x8 | x8 | x8 | x8 | x8 | x8 | x8 | z2[K:bass] F,>G, F,E,D,C, | x8 | x8 | x8 | %15
 x8 |] %16
V:4
 x8 | x8 | x8 | x8 | x8 | x8 | x8 | x8 | x8 | x8 | x8 | F,2 z2 z4 | x8 | x8 | x8 | x8 |] %16

